!!! OTL: Literature144
!!! Chapter: 5
!!! Section: IV
!!! Page: 379
!!! Mode: 
!!! Encoder: DJB
**kern
*staff1
*I"Piano
=1-
*clefF4
*k[]
*a:
*M3/4
8r
4BB/
4C/
[8AA/
=2
8AA/]
4BB/
8C/
4AA/
=3
8r
4BB/
4C/
[8AA/
=4
8AA/]
4C/
8E\
4E-\
=5
8r
4BB/
4C/
[8AA/
=6
8AA/]
4C/
8E\
4E-\
=7
8AA/L
8C/J
8E\L
8E-\J
8C\L
8E-\J
=8
8G\L
8F#\J
8C/L
8AA/J
4E-\
=9
!!linebreak:original
8r
4BB/
4C/
[8AA/
=10
8AA/]
4BB/
8C/
4AA/
==
*-
